img/icons/mime/large/htm.svg

<svg height="140.9" width="125.3" xmlns="http://www.w3.org/2000/svg" xmlns:xlink="http://www.w3.org/1999/xlink"><linearGradient id="a"><stop offset="0" stop-color="#fff"/><stop offset="1" stop-color="#fff" stop-opacity="0"/></linearGradient><linearGradient id="b" gradientTransform="matrix(.939922 0 0 .896911 -12.081733 -3.352424)" gradientUnits="userSpaceOnUse" x1="24" x2="73" xlink:href="#a" y1="16.4" y2="73.4"/><linearGradient id="c" gradientTransform="scale(1.0801 .92584)" gradientUnits="userSpaceOnUse" spreadMethod="reflect" x1="-54.6" x2="-66.5" y1="63.6" y2="49.7"><stop offset="0" stop-color="#900"/><stop offset="1" stop-color="#fff"/></linearGradient><linearGradient id="d" gradientTransform="matrix(.999352 0 0 1.000649 -151.1197 -.37325)" gradientUnits="userSpaceOnUse" spreadMethod="reflect" x1="52.7" x2="47.1" y1="81.2" y2="75.1"><stop offset="0" stop-color="#eed680"/><stop offset=".3" stop-color="#dfb546"/><stop offset="1" stop-color="#d1940c"/></linearGradient><linearGradient id="e" gradientTransform="scale(1.45548 .687059)" gradientUnits="userSpaceOnUse" x1="52.1" x2="52.1" xlink:href="#a" y1="34.3" y2="105.1"/><rect fill="none" height="133.4" rx="22.9" stroke="#000" stroke-linejoin="round" stroke-opacity=".5" stroke-width="7.5" width="117.8" x="3.8" y="3.8"/><rect fill="#bab5ab" height="133.4" rx="22.9" stroke="#000" stroke-width="3.8" width="117.8" x="3.6" y="3.7"/><path d="m101.4 123.1c-1.2 0-2.3-.2-3.3-.5s-1.9-.8-2.6-1.5c-.3-.3-.7-.7-1-1.2-.2-.2-.3-.4-.4-.6s-.3-.5-.4-1c-.5-1.1-.7-2.4-.7-3.9v-15.2h5.2v14.9c0 .8.1 1.5.3 2 .2.6.5 1.1 1 1.6s1 .8 1.7 1c.6.2 1.2.3 2 .3h6.6v4.1zm-34.8 0h-5.2v-23.9h7.7l6.2 18.5 6.4-18.5h7.7v23.9h-5.2v-17.8h-.1l-6.2 17.8h-5l-6.2-17.8h-.1zm-28.5-23.9h21.5v4.1h-8.2v19.8h-5.1v-19.8h-8.2zm-23.7 23.9v-23.9h5.2v10h9.7v-10h5.1v23.9h-5.1v-10h-9.7v10z" fill="#fff"/><path d="m100.3 132.6h-75.7c-11.6 0-17.3-5.7-17.3-17.4 0 0 27.6-66.5 110.4-76.6v76.6c0 11.7-5.7 17.4-17.4 17.4z" fill="#fff" fill-opacity=".3"/><g stroke="#000" transform="translate(118.96752 -13.864116)"><path d="m-81.3 63.1 5 1.1-2-3.1z" stroke-width=".7"/><path d="m-62.2 51s1.6-.3 1.6-.3 1.4 1.1 1.4 1.1c0-.6-.3-.9-1-1.2 0 0 .1-.3.1-.3.7-.1.9-.1 1.4-.7 0 0-1.9.3-1.9.3s-1.2-.9-1.2-.9c0 .6.2.7.8 1.1 0 0-1.2.9-1.2.9zm.7-2.6s.8.5.8.5c1.5-.4 1.9.4 2.3-1 0 0-.3-.1-.3-.1-.5.7-.9.7-1.7.5 0 0 .2-.8.2-.8s-.4-.1-.4-.1-.2.8-.2.8-.6-.1-.6-.1-.1.3-.1.3zm3.1-2.6c0 .8-.1.9-.9 1.4 0 0 .4-1.6.4-1.6-1.8 0-1.6 1.4-.8 1.9 1.2.4 2.2-.9 1.3-1.7zm-1.6-1s2.2.4 2.2.4.1-.3.1-.3c-1-.2-1.6-.3-1.7-1.3 0 0-.3-.1-.3-.1s.1.9.1.9-.4.4-.4.4zm.3-1.6s2.3.5 2.3.5v-.3c-.3-.1-2.2-.5-1.3-1.2.2-.2 1.2 0 1.6.1v-.4c-.3 0-2-.4-1.4-.9.3-.3 1.3-.1 1.6 0 0 0 .1-.5.1-.5-.5-.1-1.3-.3-1.9-.2-.4.2-.7 1.6-.6 2.1-.1.2.1.2.1.4 0 0-.5.4-.5.4zm.3 2.7s-.2 1.2-.2 1.2c-.4-.5-.5-.9.2-1.2z" fill="none" stroke-width=".2"/><path d="m-90.4 65.7c15.3-16.3 46.8-48.4 58.4-36.6 10.3 12.3-29.6 37.7-46.4 48.5z" fill="url(#c)" stroke-width="3.6"/><path d="m-80.3 76.3s-3.6 7-1.8 9c1.8 1.6-15.7 6.9-18.6 6.6 0 0-2.5 5.4-6 1.8-3.6-3.7 2-6.3 2-6.3 0-4.2 4.7-20.2 6.4-18.4 1.8 1.8 9.1-1.8 9.1-1.8s8.9 9.1 8.9 9.1z" fill="url(#d)" fill-opacity=".8" stroke-width="2.7"/><path d="m-105.5 92.5s14.5-14.3 14.5-14.3" fill="none" stroke-linecap="round" stroke-linejoin="round" stroke-width=".7"/></g><path d="m148.8 80.3a70.9 72.6 0 1 1 -141.7 0 70.9 72.6 0 1 1 141.7 0z" fill-opacity=".3" transform="matrix(.308308 -.25703 .253264 .30379 37.012904 53.695444)"/><path d="m148.8 80.3a70.9 72.6 0 1 1 -141.7 0 70.9 72.6 0 1 1 141.7 0z" fill="#4b6983" stroke="#000" stroke-opacity=".3" stroke-width="4.5" transform="matrix(.289005 -.240937 .237406 .28477 39.765104 54.056854)"/><path d="m130.9 76a39.2 39.2 0 1 1 -78.3 0 39.2 39.2 0 1 1 78.3 0z" fill="#fff" fill-opacity=".2" transform="matrix(.371896 -.310042 -.285351 -.342281 73.714334 118.18528)"/><rect fill="#4b6983" height="20.4" rx="2.7" ry="32.7" transform="matrix(.7680909 -.6403409 .6403409 .7680909 0 0)" width="39.7" x="5.1" y="86.6"/><g fill="none" stroke-linecap="round"><path d="m67.8 51.7c-12.6 12.6-16.5 25.7-8.9 29.3 7.7 3.7 24.1-3.6 36.7-16.2 12.6-12.5 16.5-25.7 8.8-29.3-7.6-3.7-24.1 3.6-36.6 16.2z" stroke="#000" stroke-opacity=".4" stroke-width="7.7"/><path d="m67.4 51.3c-12.6 12.6-16.6 25.7-8.9 29.4 7.7 3.6 24.1-3.7 36.7-16.3 12.5-12.5 16.5-25.7 8.8-29.3-7.7-3.7-24.1 3.6-36.6 16.2z" stroke="#000" stroke-width="6.3"/><path d="m66.4 50.5c-12.5 12.5-16.5 25.7-8.8 29.3 7.7 3.7 24.1-3.6 36.6-16.2 12.6-12.6 16.6-25.7 8.9-29.4-7.7-3.6-24.1 3.7-36.7 16.3z" stroke="#fff" stroke-opacity=".9" stroke-width="1.9"/><path d="m66.3 50.1c-12.5 12.6-16.5 25.8-8.8 29.4 7.7 3.7 24.1-3.6 36.6-16.2 12.6-12.6 16.6-25.7 8.9-29.4-7.7-3.6-24.1 3.7-36.7 16.2z" stroke="#fff" stroke-opacity=".5" stroke-width="2.7"/></g><path d="m148.8 80.3a70.9 72.6 0 0 1 -141.7 2.1" fill="#4b6983" stroke="#000" stroke-opacity=".3" stroke-width="4.5" transform="matrix(-.289005 .240937 -.237406 -.28477 123.03422 62.154904)"/><path d="m133.9 47.5a53.9 25.4 0 1 1 -107.8 0 53.9 25.4 0 1 1 107.8 0z" fill="url(#e)" transform="matrix(.296364 -.247072 .427628 .51294 31.806304 47.231974)"/><path d="m102.1 123.8c-1.2 0-2.3-.2-3.3-.5-1-.4-1.9-.8-2.6-1.5-.4-.3-.7-.7-1.1-1.2-.1-.2-.3-.4-.4-.6s-.2-.5-.4-1c-.4-1.1-.6-2.4-.6-3.9v-15.2h5.2v14.9c0 .8.1 1.5.3 2 .2.6.5 1.1 1 1.6.5.4 1 .8 1.6 1s1.3.3 2 .3h6.7v4.1zm-34.9 0h-5.1v-23.9h7.7l6.2 18.5 6.4-18.5h7.7v23.9h-5.2v-17.9h-.1l-6.2 17.9h-5l-6.2-17.9h-.2zm-28.4-23.9h21.5v4.1h-8.2v19.8h-5.1v-19.8h-8.2zm-23.7 23.9v-23.9h5.2v10h9.7v-10h5.1v23.9h-5.1v-10h-9.7v10z"/><path d="m24.6 7.3h75.7c11.7 0 17.4 5.7 17.4 17.4 0 0-79.3.9-110.4 91.3v-91.3c0-10.3 7-17.4 17.3-17.4z" fill="url(#b)"/></svg>

<svg xmlns:svg="http://www.w3.org/2000/svg" xmlns="http://www.w3.org/2000/svg" xmlns:xlink="http://www.w3.org/1999/xlink" id="svg1" width="125.3" height="140.9" version="1">
<style>
.s0{
  stop-color:#ffffff;
  stop-opacity:1;
}
.s1{
  stop-color:#ffffff;
  stop-opacity:0;
}
.s2{
  stop-color:#46a046;
  stop-opacity:1;
}
.s3{
  stop-color:#df421e;
  stop-opacity:1;
}
.s4{
  stop-color:#ada7c8;
  stop-opacity:1;
}
.s5{
  stop-color:#eed680;
  stop-opacity:1;
}
.s6{
  stop-color:#ffff00;
  stop-opacity:1;
}
.s7{
  stop-color:#ffea00;
  stop-opacity:1;
}
.s8{
  stop-color:#ffd600;
  stop-opacity:1;
}
.s9{
  stop-color:#dfb546;
  stop-opacity:1;
}
.s10{
  stop-color:#d1940c;
  stop-opacity:1;
}
.s11{
  stop-color:#7590ae;
  stop-opacity:1;
}
.s12{
  stop-color:#89a4c0;
  stop-opacity:1;
}
.s13{
  stop-color:#9db8d2;
  stop-opacity:1;
}
.s14{
  stop-color:#004eb1;
  stop-opacity:1;
}
.s15{
  stop-color:#4b6983;
  stop-opacity:1;
}
.s16{
  stop-color:#cedbe8;
  stop-opacity:1;
}
.s17{
  fill:#4b6983;
  stroke-opacity:0.3;
  stroke-width:4.5;
  stroke:#000;
}

</style>  <metadata id="metadata15"/>
  <defs id="defs3">
    <linearGradient id="linearGradient3587">
      <stop id="stop3589" offset="0" style="stop-color:#efe0cd;stop-opacity:0.6"/>
      <stop id="stop3591" offset="1" style="stop-color:#cececd;stop-opacity:0.2"/>
    </linearGradient>
    <linearGradient id="linearGradient2832">
      <stop offset="0" id="stop2834" class="s0"/>
      <stop offset="1" id="stop2836" class="s1"/>
    </linearGradient>
    <linearGradient id="linearGradient839">
      <stop offset="0" id="stop840" class="s2"/>
      <stop offset="0.4" id="stop841" class="s3"/>
      <stop offset="0.7" id="stop842" class="s4"/>
      <stop offset="1" id="stop843" class="s5"/>
    </linearGradient>
    <linearGradient xlink:href="#linearGradient839" id="linearGradient836" x1="0" y1="0.5" x2="1" y2="0.5"/>
    <linearGradient xlink:href="#linearGradient2832" id="linearGradient2830" gradientTransform="matrix(0.939922,0,0,0.896911,-12.081733,-3.3524237)" x1="24" y1="16.4" x2="73" y2="73.4" gradientUnits="userSpaceOnUse"/>
    <linearGradient gradientUnits="userSpaceOnUse" gradientTransform="scale(1.0801,0.92584)" spreadMethod="reflect" y2="55.1" x2="76.6" y1="73.5" x1="95.1" id="linearGradient674" xlink:href="#linearGradient869"/>
    <linearGradient y2="0.5" x2="1" y1="0.5" x1="0" id="linearGradient1373" xlink:href="#linearGradient839"/>
    <linearGradient id="linearGradient1363">
      <stop id="stop1365" offset="0" class="s2"/>
      <stop id="stop1367" offset="0.4" class="s3"/>
      <stop id="stop1369" offset="0.7" class="s4"/>
      <stop id="stop1371" offset="1" class="s5"/>
    </linearGradient>
    <linearGradient gradientUnits="userSpaceOnUse" gradientTransform="scale(0.999352,1.000649)" spreadMethod="reflect" y2="75.1" x2="47.1" y1="81.2" x1="52.7" id="linearGradient904" xlink:href="#linearGradient907"/>
    <linearGradient id="linearGradient866">
      <stop id="stop867" offset="0" class="s6"/>
      <stop id="stop901" offset="0.4" class="s7"/>
      <stop id="stop868" offset="1" class="s8"/>
    </linearGradient>
    <linearGradient id="linearGradient869">
      <stop id="stop870" offset="0" style="stop-color:#990000;stop-opacity:1"/>
      <stop id="stop871" offset="1" class="s0"/>
    </linearGradient>
    <linearGradient id="linearGradient907">
      <stop id="stop908" offset="0" class="s5"/>
      <stop id="stop911" offset="0.3" class="s9"/>
      <stop id="stop910" offset="1" class="s10"/>
    </linearGradient>
    <linearGradient y2="49.7" x2="-66.5" y1="63.6" x1="-54.6" spreadMethod="reflect" gradientTransform="scale(1.0801,0.92584)" gradientUnits="userSpaceOnUse" id="linearGradient2167" xlink:href="#linearGradient869"/>
    <linearGradient y2="75.1" x2="47.1" y1="81.2" x1="52.7" spreadMethod="reflect" gradientTransform="matrix(0.999352,0,0,1.000649,-151.1197,-0.37325)" gradientUnits="userSpaceOnUse" id="linearGradient2169" xlink:href="#linearGradient907"/>
    <linearGradient xlink:href="#linearGradient869" id="linearGradient1413" x1="0.7" y1="0.8" x2="0.4" y2="0.5" spreadMethod="reflect"/>
    <linearGradient xlink:href="#linearGradient839" id="linearGradient1411" x1="0" y1="0.5" x2="1" y2="0.5"/>
    <linearGradient id="linearGradient1401">
      <stop offset="0" id="stop1403" class="s2"/>
      <stop offset="0.4" id="stop1405" class="s3"/>
      <stop offset="0.7" id="stop1407" class="s4"/>
      <stop offset="1" id="stop1409" class="s5"/>
    </linearGradient>
    <linearGradient xlink:href="#linearGradient907" id="linearGradient1399" x1="0.4" y1="0.5" x2="0.2" y2="0.3" spreadMethod="reflect"/>
    <linearGradient id="linearGradient1391">
      <stop offset="0" id="stop1393" class="s6"/>
      <stop offset="0.4" id="stop1395" class="s7"/>
      <stop offset="1" id="stop1397" class="s8"/>
    </linearGradient>
    <linearGradient id="linearGradient1384">
      <stop offset="0" id="stop1386" class="s11"/>
      <stop offset="0.9" id="stop912" class="s12"/>
      <stop offset="1" id="stop1389" class="s13"/>
    </linearGradient>
    <linearGradient id="linearGradient1376">
      <stop offset="0" id="stop1378" class="s5"/>
      <stop offset="0.3" id="stop1380" class="s9"/>
      <stop offset="1" id="stop1382" class="s10"/>
    </linearGradient>
    <linearGradient xlink:href="#linearGradient869" id="linearGradient1436" x1="0.7" y1="0.8" x2="0.4" y2="0.5" spreadMethod="reflect"/>
    <linearGradient xlink:href="#linearGradient839" id="linearGradient1434" x1="0" y1="0.5" x2="1" y2="0.5"/>
    <linearGradient id="linearGradient1424">
      <stop offset="0" id="stop1426" class="s2"/>
      <stop offset="0.4" id="stop1428" class="s3"/>
      <stop offset="0.7" id="stop1430" class="s4"/>
      <stop offset="1" id="stop1432" class="s5"/>
    </linearGradient>
    <linearGradient xlink:href="#linearGradient907" id="linearGradient1422" x1="0.4" y1="0.5" x2="0.2" y2="0.3" spreadMethod="reflect"/>
    <linearGradient id="linearGradient1414">
      <stop offset="0" id="stop1416" class="s6"/>
      <stop offset="0.4" id="stop1418" class="s7"/>
      <stop offset="1" id="stop1420" class="s8"/>
    </linearGradient>
    <linearGradient id="linearGradient1406">
      <stop offset="0" id="stop1408" class="s11"/>
      <stop offset="0.9" id="stop1410" class="s12"/>
      <stop offset="1" id="stop1412" class="s13"/>
    </linearGradient>
    <linearGradient id="linearGradient1397">
      <stop offset="0" id="stop1399" class="s5"/>
      <stop offset="0.3" id="stop1401" class="s9"/>
      <stop offset="1" id="stop1404" class="s10"/>
    </linearGradient>
    <linearGradient xlink:href="#linearGradient5935" id="linearGradient5929" gradientUnits="userSpaceOnUse" gradientTransform="scale(1.45548,0.687059)" x1="52.1" y1="34.3" x2="52.1" y2="105.1"/>
    <linearGradient gradientUnits="userSpaceOnUse" gradientTransform="scale(0.988305,1.011834)" xlink:href="#linearGradient2873" id="linearGradient829" x1="68.5" y1="134.9" x2="24.6" y2="23.8" spreadMethod="reflect"/>
    <linearGradient id="linearGradient826">
      <stop offset="0" id="stop827" style="stop-color:#000;stop-opacity:1"/>
      <stop offset="1" id="stop828" style="stop-color:#fff;stop-opacity:1"/>
    </linearGradient>
    <linearGradient id="linearGradient833">
      <stop offset="0" id="stop834" class="s14"/>
      <stop offset="0.4" id="stop2312" style="stop-color:#1e88d8;stop-opacity:1"/>
      <stop offset="0.8" id="stop844" style="stop-color:#8ec3eb;stop-opacity:1"/>
      <stop offset="1" id="stop835" class="s0"/>
    </linearGradient>
    <linearGradient id="linearGradient837">
      <stop offset="0" id="stop838" style="stop-color:#fbb100;stop-opacity:1"/>
      <stop offset="0.3" id="stop839" style="stop-color:#fdd800;stop-opacity:1"/>
      <stop offset="1" id="stop2308" class="s6"/>
    </linearGradient>
    <linearGradient id="linearGradient840">
      <stop offset="0" id="stop2301" class="s14"/>
      <stop offset="1" id="stop2303" style="stop-color:#3cc3ff;stop-opacity:1"/>
    </linearGradient>
    <linearGradient id="linearGradient845">
      <stop offset="0" id="stop846" class="s15"/>
      <stop offset="0.4" id="stop847" class="s13"/>
      <stop offset="0.9" id="stop850" class="s16"/>
      <stop offset="1" id="stop849" class="s0"/>
    </linearGradient>
    <linearGradient id="linearGradient2855">
      <stop id="stop2857" offset="0" class="s1"/>
      <stop id="stop2859" offset="1" class="s0"/>
    </linearGradient>
    <linearGradient id="linearGradient2873">
      <stop id="stop2875" offset="0" style="stop-color:#0000b1;stop-opacity:1"/>
      <stop id="stop2877" offset="1" style="stop-color:#0000b1;stop-opacity:0"/>
    </linearGradient>
    <linearGradient id="linearGradient2879">
      <stop id="stop2881" offset="0" style="stop-color:#4b699b;stop-opacity:1"/>
      <stop id="stop2883" offset="1" style="stop-color:#4b699b;stop-opacity:0"/>
    </linearGradient>
    <linearGradient id="linearGradient5935">
      <stop id="stop5937" offset="0" class="s0"/>
      <stop id="stop5939" offset="1" class="s1"/>
    </linearGradient>
    <linearGradient xlink:href="#linearGradient5935" id="linearGradient2344" gradientUnits="userSpaceOnUse" gradientTransform="scale(1.45548,0.687059)" x1="52.1" y1="34.3" x2="52.1" y2="105.1"/>
    <linearGradient xlink:href="#linearGradient869" id="linearGradient2447" x1="0.7" y1="0.8" x2="0.4" y2="0.5" spreadMethod="reflect"/>
    <linearGradient xlink:href="#linearGradient839" id="linearGradient2445" x1="0" y1="0.5" x2="1" y2="0.5"/>
    <linearGradient id="linearGradient2435">
      <stop offset="0" id="stop2437" class="s2"/>
      <stop offset="0.4" id="stop2439" class="s3"/>
      <stop offset="0.7" id="stop2441" class="s4"/>
      <stop offset="1" id="stop2443" class="s5"/>
    </linearGradient>
    <linearGradient xlink:href="#linearGradient907" id="linearGradient2433" x1="0.4" y1="0.5" x2="0.2" y2="0.3" spreadMethod="reflect"/>
    <linearGradient id="linearGradient2425">
      <stop offset="0" id="stop2427" class="s6"/>
      <stop offset="0.4" id="stop2429" class="s7"/>
      <stop offset="1" id="stop2431" class="s8"/>
    </linearGradient>
    <linearGradient id="linearGradient2417">
      <stop offset="0" id="stop2419" class="s11"/>
      <stop offset="0.9" id="stop2421" class="s12"/>
      <stop offset="1" id="stop2423" class="s13"/>
    </linearGradient>
    <linearGradient id="linearGradient2409">
      <stop offset="0" id="stop2411" class="s5"/>
      <stop offset="0.3" id="stop2413" class="s9"/>
      <stop offset="1" id="stop2415" class="s10"/>
    </linearGradient>
    <linearGradient xlink:href="#linearGradient845" id="linearGradient2407" x1="0.5" y1="0.6" x2="0.2" y2="0.3" spreadMethod="reflect"/>
    <linearGradient id="linearGradient2397">
      <stop offset="0" id="stop2399" class="s15"/>
      <stop offset="0.4" id="stop2401" class="s13"/>
      <stop offset="0.9" id="stop2403" class="s16"/>
      <stop offset="1" id="stop2405" class="s0"/>
    </linearGradient>
  </defs>
  <rect id="rect834" width="117.8" height="133.4" x="3.8" y="3.8" ry="22.9" rx="22.9" style="fill:none;stroke-linejoin:round;stroke-opacity:0.5;stroke-width:7.5;stroke:#000"/>
  <rect id="rect828" width="117.8" height="133.4" x="3.6" y="3.7" ry="22.9" rx="22.9" style="fill:#bab5ab;stroke-width:3.8;stroke:#000"/>
  <path d="M101.4 123.1C100.2 123.1 99.1 122.9 98.1 122.6 97.1 122.3 96.2 121.8 95.5 121.1 95.2 120.8 94.8 120.4 94.5 119.9 94.3 119.7 94.2 119.5 94.1 119.3 94 119.1 93.8 118.8 93.7 118.3 93.2 117.2 93 115.9 93 114.4L93 99.2 98.2 99.2 98.2 114.1C98.2 114.9 98.3 115.6 98.5 116.1 98.7 116.7 99 117.2 99.5 117.7 100 118.2 100.5 118.5 101.2 118.7 101.8 118.9 102.4 119 103.2 119L109.8 119 109.8 123.1 101.4 123.1zM66.6 123.1L61.4 123.1 61.4 99.2 69.1 99.2 75.3 117.7 81.7 99.2 89.4 99.2 89.4 123.1 84.2 123.1 84.2 105.3 84.1 105.3 77.9 123.1 72.9 123.1 66.7 105.3 66.6 105.3 66.6 123.1zM38.1 99.2L59.6 99.2 59.6 103.3 51.4 103.3 51.4 123.1 46.3 123.1 46.3 103.3 38.1 103.3 38.1 99.2zM14.4 123.1L14.4 99.2 19.6 99.2 19.6 109.2 29.3 109.2 29.3 99.2 34.4 99.2 34.4 123.1 29.3 123.1 29.3 113.1 19.6 113.1 19.6 123.1 14.4 123.1z" id="path2488" style="fill:#fff;font-family:Trek;font-size:40;stroke-width:1"/>
  <path d="M100.3 132.6L24.6 132.6C13 132.6 7.3 126.9 7.3 115.2 7.3 115.2 34.9 48.7 117.7 38.6L117.7 115.2C117.7 126.9 112 132.6 100.3 132.6z" id="path2838" style="fill-opacity:0.3;fill:#fff"/>
  <g transform="translate(118.96752,-13.864116)" id="g2160">
    <path id="path873" d="M-81.3 63.1L-76.3 64.2 -78.3 61.1 -81.3 63.1z" style="stroke-width:0.7;stroke:#000"/>
    <path d="M-62.2 51C-62.2 51-60.6 50.7-60.6 50.7 -60.6 50.7-59.2 51.8-59.2 51.8 -59.2 51.2-59.5 50.9-60.2 50.6 -60.2 50.6-60.1 50.3-60.1 50.3 -59.4 50.2-59.2 50.2-58.7 49.6 -58.7 49.6-60.6 49.9-60.6 49.9 -60.6 49.9-61.8 49-61.8 49 -61.8 49.6-61.6 49.7-61 50.1 -61 50.1-62.2 51-62.2 51zM-61.5 48.4C-61.5 48.4-60.7 48.9-60.7 48.9 -59.2 48.5-58.8 49.3-58.4 47.9 -58.4 47.9-58.7 47.8-58.7 47.8 -59.2 48.5-59.6 48.5-60.4 48.3 -60.4 48.3-60.2 47.5-60.2 47.5 -60.2 47.5-60.6 47.4-60.6 47.4 -60.6 47.4-60.8 48.2-60.8 48.2 -60.8 48.2-61.4 48.1-61.4 48.1 -61.4 48.1-61.5 48.4-61.5 48.4zM-58.4 45.8C-58.4 46.6-58.5 46.7-59.3 47.2 -59.3 47.2-58.9 45.6-58.9 45.6 -60.7 45.6-60.5 47-59.7 47.5 -58.5 47.9-57.5 46.6-58.4 45.8zM-60 44.8C-60 44.8-57.8 45.2-57.8 45.2 -57.8 45.2-57.7 44.9-57.7 44.9 -58.7 44.7-59.3 44.6-59.4 43.6 -59.4 43.6-59.7 43.5-59.7 43.5 -59.7 43.5-59.6 44.4-59.6 44.4 -59.6 44.4-60 44.8-60 44.8zM-59.7 43.2C-59.7 43.2-57.4 43.7-57.4 43.7 -57.4 43.7-57.4 43.4-57.4 43.4 -57.7 43.3-59.6 42.9-58.7 42.2 -58.5 42-57.5 42.2-57.1 42.3 -57.1 42.3-57.1 41.9-57.1 41.9 -57.4 41.9-59.1 41.5-58.5 41 -58.2 40.7-57.2 40.9-56.9 41 -56.9 41-56.8 40.5-56.8 40.5 -57.3 40.4-58.1 40.2-58.7 40.3 -59.1 40.5-59.4 41.9-59.3 42.4 -59.4 42.6-59.2 42.6-59.2 42.8 -59.2 42.8-59.7 43.2-59.7 43.2zM-59.4 45.9C-59.4 45.9-59.6 47.1-59.6 47.1 -60 46.6-60.1 46.2-59.4 45.9z" id="path900" style="fill:none;stroke-width:0.2;stroke:#000"/>
    <path id="path879" d="M-90.4 65.7C-75.1 49.4-43.6 17.3-32 29.1 -21.7 41.4-61.6 66.8-78.4 77.6L-90.4 65.7z" style="fill:url(#linearGradient2167);stroke-width:3.6;stroke:#000"/>
    <path id="path868" d="M-80.3 76.3C-80.3 76.3-83.9 83.3-82.1 85.3 -80.3 86.9-97.8 92.2-100.7 91.9 -100.7 91.9-103.2 97.3-106.7 93.7 -110.3 90-104.7 87.4-104.7 87.4 -104.7 83.2-100 67.2-98.3 69 -96.5 70.8-89.2 67.2-89.2 67.2 -89.2 67.2-80.3 76.3-80.3 76.3z" style="fill-opacity:0.8;fill:url(#linearGradient2169);stroke-width:2.7;stroke:#000"/>
    <path id="path876" d="M-105.5 92.5C-105.5 92.5-91 78.2-91 78.2" style="fill:none;stroke-linecap:round;stroke-linejoin:round;stroke-width:0.7;stroke:#000"/>
  </g>
  <path id="path837" d="M148.8 80.3A70.9 72.6 0 1 1 7.1 80.3 70.9 72.6 0 1 1 148.8 80.3z" transform="matrix(0.308308,-0.25703,0.253264,0.30379,37.012904,53.695444)" style="fill-opacity:0.3;fill:#000"/>
  <path id="path825" d="M148.8 80.3A70.9 72.6 0 1 1 7.1 80.3 70.9 72.6 0 1 1 148.8 80.3z" transform="matrix(0.289005,-0.240937,0.237406,0.28477,39.765104,54.056854)" class="s17"/>
  <path transform="matrix(0.371896,-0.310042,-0.285351,-0.342281,73.714334,118.18528)" d="M130.9 76A39.2 39.2 0 1 1 52.6 76 39.2 39.2 0 1 1 130.9 76z" id="path2863" style="fill-opacity:0.2;fill:#fff"/>
  <rect transform="matrix(0.7680909,-0.6403409,0.6403409,0.7680909,0,0)" ry="32.7" rx="2.7" y="86.6" x="5.1" height="20.4" width="39.7" id="rect3659" fill="#4b6983"/>
  <path d="M67.8 51.7C55.2 64.3 51.3 77.4 58.9 81 66.6 84.7 83 77.4 95.6 64.8 108.2 52.3 112.1 39.1 104.4 35.5 96.8 31.8 80.3 39.1 67.8 51.7z" id="path4385" style="fill:none;stroke-linecap:round;stroke-opacity:0.4;stroke-width:7.7;stroke:#000"/>
  <path d="M67.4 51.3C54.8 63.9 50.8 77 58.5 80.7 66.2 84.3 82.6 77 95.2 64.4 107.7 51.9 111.7 38.7 104 35.1 96.3 31.4 79.9 38.7 67.4 51.3z" id="path2086" style="fill:none;stroke-linecap:round;stroke-width:6.3;stroke:#000"/>
  <path d="M66.4 50.5C53.9 63 49.9 76.2 57.6 79.8 65.3 83.5 81.7 76.2 94.2 63.6 106.8 51 110.8 37.9 103.1 34.2 95.4 30.6 79 37.9 66.4 50.5z" id="path3625" style="fill:none;stroke-linecap:round;stroke-opacity:0.9;stroke-width:1.9;stroke:#fff"/>
  <path d="M66.3 50.1C53.8 62.7 49.8 75.9 57.5 79.5 65.2 83.2 81.6 75.9 94.1 63.3 106.7 50.7 110.7 37.6 103 33.9 95.3 30.3 78.9 37.6 66.3 50.1z" id="path6698" style="fill:none;stroke-linecap:round;stroke-opacity:0.5;stroke-width:2.7;stroke:#fff"/>
  <path id="path5916" d="M148.8 80.3A70.9 72.6 0 0 1 7.1 82.4" transform="matrix(-0.289005,0.240937,-0.237406,-0.28477,123.03422,62.154904)" class="s17"/>
  <path transform="matrix(0.296364,-0.247072,0.427628,0.51294,31.806304,47.231974)" d="M133.9 47.5A53.9 25.4 0 1 1 26.1 47.5 53.9 25.4 0 1 1 133.9 47.5z" id="path2893" fill="url(#linearGradient2344)"/>
  <path d="M102.1 123.8C100.9 123.8 99.8 123.6 98.8 123.3 97.8 122.9 96.9 122.5 96.2 121.8 95.8 121.5 95.5 121.1 95.1 120.6 95 120.4 94.8 120.2 94.7 120 94.6 119.8 94.5 119.5 94.3 119 93.9 117.9 93.7 116.6 93.7 115.1L93.7 99.9 98.9 99.9 98.9 114.8C98.9 115.6 99 116.3 99.2 116.8 99.4 117.4 99.7 117.9 100.2 118.4 100.7 118.8 101.2 119.2 101.8 119.4 102.4 119.6 103.1 119.7 103.8 119.7L110.5 119.7 110.5 123.8 102.1 123.8zM67.2 123.8L62.1 123.8 62.1 99.9 69.8 99.9 76 118.4 82.4 99.9 90.1 99.9 90.1 123.8 84.9 123.8 84.9 105.9 84.8 105.9 78.6 123.8 73.6 123.8 67.4 105.9 67.2 105.9 67.2 123.8zM38.8 99.9L60.3 99.9 60.3 104 52.1 104 52.1 123.8 47 123.8 47 104 38.8 104 38.8 99.9zM15.1 123.8L15.1 99.9 20.3 99.9 20.3 109.9 30 109.9 30 99.9 35.1 99.9 35.1 123.8 30 123.8 30 113.8 20.3 113.8 20.3 123.8 15.1 123.8z" id="path862" style="font-family:Trek;font-size:40;stroke-width:1"/>
  <path d="M24.6 7.3L100.3 7.3C112 7.3 117.7 13 117.7 24.7 117.7 24.7 38.4 25.6 7.3 116L7.3 24.7C7.3 14.4 14.3 7.3 24.6 7.3z" id="rect2063" fill="url(#linearGradient2830)"/>
</svg>
